X: 31517
T: Paddy's In Chicago
R: hornpipe
M: 4/4
K: Dmajor
|:de|fAAf edBd|ABAF EDEF|D z (3def edBA|Beed e2de|
fAAf edBd|ABAF EDEF|DEDB, A,B,DF|EDEF D2:|
|:DE|FA,A,F ED (3 B,CD|A,B,DF EDB,D|(3 FED ED EFGA|BEED E2DE|
FA,A,F EDB,D|A,B,DF EDEF|D z (3def edBd|Addc d2:|

